lib/flags/l/BQ-SE.svg

<svg xmlns="http://www.w3.org/2000/svg" fill="none" viewBox="0 0 32 24"><mask id="BQ-SE_svg__a" width="32" height="24" x="0" y="0" mask-type="alpha" maskUnits="userSpaceOnUse"><path fill="#fff" d="M0 0H32V24H0z"/></mask><g mask="url(#BQ-SE_svg__a)"><path fill="#00268D" fill-rule="evenodd" d="M0 0H32V24H0V0Z" clip-rule="evenodd"/><path fill="#00268D" stroke="#E31D1C" stroke-width="2" d="M1 1H31V23H1V1Z"/><path fill="#E31D1C" d="M15 0H17V24H15z"/><path fill="#E31D1C" d="M0 13H2V45H0z" transform="rotate(-90 0 13)"/><path fill="#fff" stroke="#E31D1C" stroke-width="2" d="M16.4472 6.10557L16 5.88197L15.5528 6.10557L5.55279 11.1056L3.76393 12L5.55279 12.8944L15.5528 17.8944L16 18.118L16.4472 17.8944L26.4472 12.8944L28.2361 12L26.4472 11.1056L16.4472 6.10557Z"/><mask id="BQ-SE_svg__b" width="30" height="16" x="1" y="4" mask-type="alpha" maskUnits="userSpaceOnUse"><path fill="#fff" stroke="#fff" stroke-width="2" d="M16.4472 6.10557L16 5.88197L15.5528 6.10557L5.55279 11.1056L3.76393 12L5.55279 12.8944L15.5528 17.8944L16 18.118L16.4472 17.8944L26.4472 12.8944L28.2361 12L26.4472 11.1056L16.4472 6.10557Z"/></mask><g mask="url(#BQ-SE_svg__b)"><path fill="#059334" d="M11.6088 16C11.8778 16 25 16 25 16L23.5841 14.7239C23.5841 14.7239 20.7528 12.2005 20.5706 12.0849C20.3884 11.9692 20.0874 11.9193 19.7449 12.2869C19.4023 12.6544 19.2059 12.0849 18.9207 12.0849C18.6355 12.0849 18.5149 12.0849 18.1011 12.5565C17.6874 13.028 16.1973 14.7239 16.1973 14.7239H14.0075C14.0075 14.7239 13.6381 14.4453 13.4276 14.5447C13.2171 14.6441 12.0312 13.4452 11.6088 13.3557C11.1864 13.2661 10.9085 13.6806 10.9085 14.0105C10.9085 14.3404 10.7098 13.7082 10.3056 13.8938C9.90147 14.0794 10.0318 14.5447 10.0318 14.5447C10.0318 14.5447 11.3398 16 11.6088 16Z"/><path fill="#FEDA00" fill-rule="evenodd" d="M15.5048 11.3012L14.5785 12L14.9184 10.8457L14 10.1391H15.1441L15.5048 9L15.887 10.1391H17L16.0896 10.8457L16.4357 12L15.5048 11.3012Z" clip-rule="evenodd"/></g></g></svg>

<svg xmlns="http://www.w3.org/2000/svg" fill="none" viewBox="0 0 32 24"><mask id="BQ-SE_svg__a" width="32" height="24" x="0" y="0" maskUnits="userSpaceOnUse"><path fill="#fff" d="M0 0h32v24H0z"/></mask><g mask="url(#BQ-SE_svg__a)"><path fill="#00268D" fill-rule="evenodd" d="M0 0h32v24H0V0z" clip-rule="evenodd"/><path fill="#00268D" stroke="#E31D1C" stroke-width="2" d="M1 1h30v22H1V1z"/><path fill="#E31D1C" d="M15 0h2v24h-2z"/><path fill="#E31D1C" d="M0 13v-2h32v2z"/><path fill="#fff" stroke="#E31D1C" stroke-width="2" d="M16.447 6.106L16 5.882l-.447.224-10 5-1.79.894 1.79.894 10 5 .447.224.447-.224 10-5 1.79-.894-1.79-.894-10-5z"/><mask id="BQ-SE_svg__b" width="30" height="16" x="1" y="4" maskUnits="userSpaceOnUse"><path fill="#fff" stroke="#fff" stroke-width="2" d="M16.447 6.106L16 5.882l-.447.224-10 5-1.79.894 1.79.894 10 5 .447.224.447-.224 10-5 1.79-.894-1.79-.894-10-5z"/></mask><g mask="url(#BQ-SE_svg__b)"><path fill="#059334" d="M11.609 16H25l-1.416-1.276s-2.831-2.524-3.013-2.64c-.183-.115-.484-.165-.826.203-.343.367-.54-.202-.824-.202-.285 0-.406 0-.82.471l-1.904 2.168h-2.19s-.369-.279-.58-.18c-.21.1-1.396-1.099-1.818-1.188-.423-.09-.7.325-.7.655s-.2-.303-.603-.117c-.405.185-.274.65-.274.65S11.34 16 11.609 16z"/><path fill="#FEDA00" fill-rule="evenodd" d="M15.505 11.301l-.927.699.34-1.154-.918-.707h1.144L15.504 9l.383 1.14H17l-.91.706.346 1.154-.931-.699z" clip-rule="evenodd"/></g></g></svg>
